X:1
T:Over Lake Baikal
M:4/4
Q:1/4=120
K:Eb
B4=A3B|c4B3G|G4F3E|G8|B4=A3B|c6BG|G4F3G|B4B4|
c4A3c|e4d3c|B4G3A|B4e4|d4c3B|A4G3D|F8|E8|
c4A3c|e4d3c|B4G3A|B4e4|d4c3B|A4G3D|F8|E7/2||
